X:1
T:There
T:There
T:Copyright © CPDL
T:Copyright © CPDL
T:Copyright © CPDL
T:Copyright © CPDL
T:Copyright © CPDL
Z:Copyright © CPDL
%%score 1 { ( 2 3 ) ( 4 5 6 ) }
L:1/8
Q:1/4=70
M:4/4
K:G
V:1 treble nm="P1"
V:2 bass nm="P2"
V:3 bass 
V:4 bass nm="P3"
V:5 bass 
V:6 bass 
V:1
"^Editor: John Henry Fowler""^(  Revision:   5 - 22 - 2008  )""^Slow." z2 z2 | %1
w: |
"^English Poet, Great Niece of Samuel Taylor Coleridge""^Words by Mary Elizabeth Coleridge - (1861 - 1907)""^From \"English Lyrics\" -  Set 9 -  Number 7" z8 | %2
w: |
"^Charles Hubert Hastings Parry""^( 1848 - 1918 )" z8 | z8 | z8 | B2 AG AB d2- | %6
w: |||There, in that o- ther world,|
 d2!<(! E2!<)! B>!>)!!>(!A D2 |"^cresc."!<(! d2 cB!<)! e4 | A2 G!>(!E !>!GF!>)! B2 | %9
w: _ what waits for me~?|What shall I find|af- ter that o- ther birth~?|
"^poco agitato" z B"^cresc." AG/ z/ !>!cA/ z/ !>!dB | e3 B c4 | %11
w: No storm- y, toss- ing, foam- ing,|smil- ing sea,|
 z2!p!"^rit." !breath!F2 z F"^Più mosso"!<)!!<(! B,2 ||[K:E] B8 | z4 z2 z!p! F | G>G FE FG c>G | %15
w: But a new|earth.|No|sun to mark the chang- ing of the|
 F4 z!<(! cB!<)!A |"^rit." f>!>(!e de/c/!>)! B3 A | G4 z2 z B | %18
w: days, No slow, soft|fall- ing of the al- ter- nate|night, No|
"^agitato""^cresc."!<(! ^A2!<)! z c B2 z =d | c>e =dc f4- || %20
w: moon, no star, no|light up- on my ways,|
[K:G] f!mf! z"^a tempo"!<(! A2- A B2!<)! A | d6 z2 |"^poco rit." z8 |"^a tempo" z!mf! A B>c d2 D2 | %24
w: _ On- * ly the|Light.||No grey ca- the- dral,|
 GFEB A4 | z"^cresc." FGA B3 E | GFEF G4 |"^allargando"!f! z B c>d e3"^cresc. molto" ^G | %28
w: wide and won- drous fair,|That I may tread Where|all my fa- thers trod.|Nay, Nay, my soul, no|
 BAce g4- | g4 z4 |!f! z2"^lento ad lib." A2 c3 B | !>!E4 z4 |!p! z2 e4 !breath!D2 | B8- | %34
w: house of God is there,|_|But on- ly|God,|on- ly|God.|
 B2 z2 !fermata!z4 |] %35
w: _|
V:2
 z (!>![G,G][F,F][E,E]) | [E,^C]3 z z[K:treble] (!>![Dd] [C^c][B,B]) | %2
 !>![G,G]3 z z !>![Gg][Ff][Ee] |!>(! [DGd][B,B][A,A][G,G]!>)! [DF] [CE]2 [A,C] | %4
 [B,D]2 [B,D]4 [B,D]2- | [B,D]/x/B,/D/- D/B,/D/B/ z/ x/ B,/D/- D/G,/D/G/ | %6
 F/F,/C/F/ E/E,/C/E/ D/D,/A,/D/- D/A,/D/A/ | z/ G,/D/G/- G/D/G/d/ z !>![D^Gd] [Cc][B,B] | %8
 z/ A,/E/A/- A/E/A/e/ z/ A,/^D/A/- A/D/A/^d/ | %9
"^poco agitato" z/ E,/"^cresc."B,/E/- E/[K:treble]B,/D/B/ z/ C/G/c/ z/ =F/B/=f/ | %10
 z/ G,/E/G/ ^G/D/G/d/ z [CEc] [B,EB][A,EA] |!p! !breath![F,^CEF]2 z2 [=A,^DF]2 z2 || %12
[K:E] [GBg]2 [FBf][Ee] [FBf][Gcg] [DB-]2 | Bc DE B2 GF | x8[K:bass] | %15
 [A,F] [Aca]!<(![Gg][Ff] [Gg][Aa]!<)![cc']!>(!!>(![Ee] | %16
"^rit." [Dd]!>)! [B,B]2!>)! C =D/B,/D/B/ ^D/B,/D/B/ | z B A!<(!G!<)! ed/ cB z/ | %18
"^agitato" [E^A]2 C2 x4 |!<(! [Ec]2!<)! x2 x4 ||[K:G]!f!!<(! d2"^a tempo" F2 [EG]3!<)! A- | %21
 [A,DFA]!<(!!<(! [Ff][Ee][Dd]!<)!!<)!!<(!!<(! !>![Aa][Gg][Ff]!<)!!<)![Ee] | %22
 [Bb][Aa][Ff][Dd] [A,A]2 [B,DB][DF] | [A,FA]/^C/D/F/ z2 z/ C/D/B/ A/G/D/B,/ | %24
 GFEB A>D!<(! F/A/d/!<)!f/ | [A^da]2!<(! G/^C/F/D/!<)! F/D/E/G/ B/G/E/B,/ | %26
 !tenuto!E,/B,/!tenuto!^D,/B,/ !tenuto!^C,/B,/!tenuto!D,/B,/ E,/G,/B,/E/[K:treble]!<(! G/B/e/g/!<)! | %27
 [Bgb]2 G/D/G/B/ !>![DGd] [Cc]2 .[B,E^G] |!<(! [B,EB][A,A][CEAc][Ee]!<)! [GAcg]2 [Ff][Ee] | %29
 [^CG^c] [Dd]2 [=CG=c] [^A,G^A] [B,B]2 [=A,D=A] | [=F,A,D]2 z2 [^G,DE]2 z2 | %31
 z [CEc][B,B][A,A] z!<(! [EG]!<)!!>(![DF]!>)![CE] | z4 [F,CF]4 | z4 !breath!.D.G.d.g | %34
 .!fermata!d'8 |] %35
V:3
 x B,2 B, | (B,2 ^A,) x x[K:treble] F2 F | F2 E x x c2 c | x2 D2 G,2 x2 | x8 | x8 | x8 | x8 | x8 | %9
 x5/2[K:treble] x11/2 | x8 | x8 ||[K:E] x4 x2 GF | E2 B,C E C2 D | %14
 [EG]/[K:bass] B,,/G,/B,/ A,/B,,/G,/B,/ A,/B,,/G,/B,/ G,/C,/G,/C/ | x8 | x8 | %17
 x [B,E]2 [B,E] [EG]3 [B,E] | =G/F/G/E/ x2 z/ ^E/F/=D/ B,2 | %19
 =G/F/G/E/ C/E/G/^A/ B/^E/F/=D/ B,/D/F/B/ ||[K:G] [DF]2 D2- D B,2 ^C | z4 d2 ^c2 | d2 x2 ED x2 | %23
 x8 | =C4 C2 x2 | z4 B,3 z | E,^D,^C,D, x4[K:treble] | x8 | x8 | x8 | x8 | x4 x G,3 | x8 | x8 | %34
 x8 |] %35
V:4
!mf! [G,,,G,,]4 |!pp! x3 x!mf! z (F, [E,F,^A,][D,F,]) | (F,2 E,) z!f! z [E,C] [F,C]2 | %3
"^dim."!>(! [B,,,B,,]4!>)!!pp! [C,,G,,]4 | x8 | x8 | [A,,,A,,]2 [G,,,G,,]2 [F,,,F,,]3 [C,,C,] | %7
!<(! [B,,,B,,]4!<)! [E,,,E,,]4 | ([C,,C,]4!>(! [B,,,B,,]2)!>)! z2 | %9
 [G,,,G,,]3 [=F,,=F,] [E,,E,]2 [D,,D,]2 | %10
 ([C,,C,]2 [B,,,B,,]2)!>(! [A,,,A,,](E,/A,,/ D,/A,,/C,/!>)!A,,/) | %11
"^rit." [^A,,,^C,]2 z2 [B,,,B,,]2 z2 || %12
[K:E] (E,,/^A,,/B,,/B,/ =A,/B,,/G,/B,,/) (D,/B,,/E,/B,,/ B,/B,,/A,/B,,/) | %13
"^dim." (E,,/B,,/E,/G,/!<(! A,/B,,/!<)!G,/B,,/) (F,/!>(!B,,/^A,,/B,,/ B,/B,,/!>)!=A,/B,,/) | %14
 E,,4 E,,4- |!p! [E,,,E,,]/ (A,,/C,/F,/!<(! A,/)(C,/F,/A,/ C/F,/A,/C/!<)! A,/F,/C,/A,,/) | %16
 (E,,/B,,/G,/B,,/ F,/B,,/E,/B,,/ F,) (B,,2 F,) | %17
 (E,,/^A,,/B,,/G,/ B,/G,/B,,/!<(!E,/) (E,,/!<)!^B,,/C,/G,/ C/G,/C,/G,/) | %18
 [E,,E,]2 z/ (F,/=G,/^A,,/ [=D,,B,,]2) z/ (^E,/F,/=D,/ |"^cresc."!<(! [^A,,=G,]3)!<)! [E,C] B,4 || %20
[K:G]!<(! z2!mf!"^cresc." F,2 E,2!<)! A,2 | %21
!f! (D,,/A,,/A,/A,,/ G,/A,,/F,/A,,/)"^cresc. molto" E,/A,,A,,A,,A,,/ | %22
!f! (^E,"^dim."F,/A,,/ A,/A,,/F,/A,,/) (G,/A,,/F,/A,,/!p! D,/"^poco rit."B,,/F,/B,/ | %23
"^a tempo" =C,,4) B,,,4 | A,,/^C,/D,/F,/ G,,/C,/D,/G,/ F,,/D,/F,/A,/!<(! =C,!<)![D,A,D] | %25
 (B,,/F,/B,/^D/"^cresc."!<(! z A,!<)! G,3) G, | [B,,,B,,]4 [E,,B,,]!>![E,,E,] [^D,,^D,][E,,E,] | %27
 z/ (G,/B,/D/"^cresc."!<(! x2!<)! x4) |!<(! x2 x2!<)! [G,A,C]2 [G,A,C] z | %29
 ([B,,,B,,]2 [E,,E,]2 [D,,D,]2 [C,,C,]2) |"^colla voce" [B,,,B,,]2!mf! z2 [E,,,E,,]2 z2 | %31
"^dim." z (E,!<(!D,!<)!!>(!C,)!>)! z A,,2 A,, |!pp! z4 [D,,A,,D,]4 |!ped! .G,,,.G,,.D,.B, x2 x2 | %34
!ped-up! z8 |] %35
V:5
 x4 | [F,,,F,,]3 z [B,,,B,,]4 | [E,,B,,]3 x [A,,,A,,]4 | x4 x2 x E, | D,2 D,4 D,2- | %5
 D,/(D,/ x x2 z/) (D,/x/ x/ x2) | x8 | x4 z/ (B,,/E,/^G,/) z/ (E,/G,/D/) | x8 | x8 | x8 | x8 || %12
[K:E] E,,2 x2 x4 | E,,2 x2 x4 | x8 | x8 | E,,2 x2 x4 | E,,2 x2 E,,2 x2 | x8 | x4 (=D,3 B,,) || %20
[K:G] [A,,,A,,]6 A,,2 | D,,2 x2 (!>!B,2 A,G,) | [D,,A,,]2 x2 x4 | x2 A,/(D,/F,/A,/) x4 | %24
 A,,2 G,,2 F,,2 C,2 | B,,4 B,,4 | x8 | [=F,,=F,]4 [E,,E,]2 [D,,D,]2 | %28
 [C,,C,]3 [B,,,B,,] [A,,,A,,]4 | x8 | x8 | [A,,,A,,]4 C,,4 | x4 x4 | G,,,2 x2 x4 | x8 |] %35
V:6
 x4 | x8 | x8 | x8 | [G,,,G,,]8- | [G,,,G,,]4 [G,,,G,,]2 [B,,,B,,]2 | x8 | x8 | x8 | x8 | x8 | %11
 x8 ||[K:E] x8 | x8 | x8 | x8 | x8 | x8 | x8 | x8 ||[K:G] x8 | x8 | x8 | x2 A,2 x4 | x8 | x8 | x8 | %27
 x8 | x8 | x8 | x8 | x8 | x8 | x8 | x8 |] %35

